Papirus/24x24/panel/youtube-indicator-dark-sync3.svg

<?xml version="1.0" encoding="UTF-8" standalone="no"?>
<svg xmlns:dc="http://purl.org/dc/elements/1.1/" xmlns:cc="http://creativecommons.org/ns#" xmlns:rdf="http://www.w3.org/1999/02/22-rdf-syntax-ns#" xmlns:svg="http://www.w3.org/2000/svg" xmlns="http://www.w3.org/2000/svg" width="24" height="24" viewBox="0 0 23.999999 24" id="svg4295" version="1.1">
    <metadata id="metadata4300">
        <rdf:RDF>
            <cc:Work rdf:about="">
                <dc:format>
                    image/svg+xml
                </dc:format>
                <dc:type rdf:resource="http://purl.org/dc/dcmitype/StillImage"/>
                <dc:title/>
            </cc:Work>
        </rdf:RDF>
    </metadata>
    <g id="layer1" transform="translate(1.0000276,-1029.3622)">
        <path style="display:inline;opacity:0.5;fill:#000000;fill-opacity:1;fill-rule:nonzero;stroke:none;enable-background:new" d="m 10.998047,4 c 0,0 -3.7785091,5.531e-4 -6.2968751,0.1894531 -0.35178,0.044 -1.1181674,0.048016 -1.8027344,0.7910157 -0.539561,0.5663998 -0.7148438,1.8515625 -0.7148437,1.8515624 0,0 -0.1770925,1.5109844 -0.1796876,3.0214844 L 2,12.140625 c -0.0026,1.5106 0.1796875,3.021484 0.1796875,3.021484 0,0 0.1752828,1.285063 0.7148437,1.851563 0.6845662,0.7435 1.5838611,0.720928 1.984375,0.798828 C 6.3186043,17.9557 10.998047,18 10.998047,18 c 0,0 1.211239,-0.01504 2.408203,-0.03906 C 13.146201,17.357246 13,16.696094 13,16 c 0,-2.7495 2.250439,-5 5,-5 0.71006,0 1.384722,0.153819 1.998047,0.423828 L 20,9.8535156 c 0.0026,-1.5105 -0.179688,-3.0214844 -0.179688,-3.0214844 0,0 -0.175236,-1.2851625 -0.714843,-1.8515624 C 18.421153,4.2369687 17.652545,4.2329531 17.300781,4.1894531 14.782505,4.0005531 11.005859,4 11.005859,4 l -0.0078,0 z M 8,7 14,11.013672 8,15 8,7 Z" transform="translate(-9.5367432e-7,1030.3622)" id="path4269"/>
        <path style="color:#ffffff;opacity:0.5;fill:#000000;fill-opacity:1" d="m 20.828425,1043.5338 c -1.562047,-1.5621 -4.094793,-1.5621 -5.656847,0 -1.562104,1.5621 -1.562051,4.0947 -5e-6,5.6568 1.562047,1.5621 4.094793,1.5621 5.656847,0 1.562104,-1.5621 1.562051,-4.0947 5e-6,-5.6568 z m -0.707094,0.7071 a 3,3 0 0 1 -2.2e-5,4.2426 l -0.707087,-0.7071 a 2,2 0 0 0 1.5e-5,-2.8285 l 0.707094,-0.707 z m -4.242642,0 0.707087,0.7071 a 2,2 0 0 0 -1.5e-5,2.8285 l -0.707094,0.707 a 3,3 0 0 1 2.2e-5,-4.2426 z" id="path4140"/>
    </g>
</svg>

<?xml version="1.0" encoding="UTF-8" standalone="no"?>
<svg id="svg4295" xmlns:rdf="http://www.w3.org/1999/02/22-rdf-syntax-ns#" xmlns="http://www.w3.org/2000/svg" height="24" width="24" version="1.1" xmlns:cc="http://creativecommons.org/ns#" viewBox="0 0 23.999999 24" xmlns:dc="http://purl.org/dc/elements/1.1/">
 <metadata id="metadata4300">
  <rdf:RDF>
   <cc:Work rdf:about="">
    <dc:format>image/svg+xml</dc:format>
    <dc:type rdf:resource="http://purl.org/dc/dcmitype/StillImage"/>
    <dc:title/>
   </cc:Work>
  </rdf:RDF>
 </metadata>
 <g id="layer1" transform="translate(1 -1029.4)">
  <path id="path4269" opacity=".5" style="enable-background:new" d="m10.998 4s-3.7785 0.0005531-6.2969 0.18945c-0.35178 0.044-1.1182 0.048016-1.8027 0.79102-0.53956 0.5664-0.71484 1.8516-0.71484 1.8516s-0.17709 1.511-0.17969 3.0215l-0.0039 2.2874c-0.0026 1.5106 0.17969 3.0215 0.17969 3.0215s0.17528 1.2851 0.71484 1.8516c0.68457 0.7435 1.5839 0.72093 1.9844 0.79883 1.4397 0.143 6.1191 0.187 6.1191 0.187s1.2112-0.01504 2.4082-0.03906c-0.26-0.604-0.406-1.265-0.406-1.961 0-2.7495 2.2504-5 5-5 0.71006 0 1.3847 0.15382 1.998 0.42383l0.002-1.5705c0.0026-1.5105-0.17969-3.0215-0.17969-3.0215s-0.17524-1.2852-0.71484-1.8516c-0.684-0.7434-1.452-0.7474-1.804-0.7909-2.518-0.1889-6.295-0.1895-6.295-0.1895h-0.0078zm-2.998 3 6 4.014-6 3.986v-8z" transform="translate(-9.5367e-7 1030.4)"/>
  <path id="path4140" opacity=".5" style="color:#ffffff" d="m20.828 1043.5c-1.562-1.5621-4.0948-1.5621-5.6568 0-1.5621 1.5621-1.5621 4.0947-0.000005 5.6568 1.562 1.5621 4.0948 1.5621 5.6568 0 1.5621-1.5621 1.5621-4.0947 0.000005-5.6568zm-0.70709 0.7071a3 3 0 0 1 -0.000022 4.2426l-0.70709-0.7071a2 2 0 0 0 0.000015 -2.8285l0.70709-0.707zm-4.2426 0 0.70709 0.7071a2 2 0 0 0 -0.000015 2.8285l-0.70709 0.707a3 3 0 0 1 0.000022 -4.2426z"/>
 </g>
</svg>
